X:1
T:Lochaber's Reel
M:4/4
L:1/8
R:Strathspey
S:Howe's 1000 Jigs and Reels (c.1867)
Z:AK/Fiddler's Companion
K:G Minor
[| "Dm"A<d d>c d>c AF  | "Gm"D<G G<B D<G G<B | "Dm"A<d df     d<c AF | "Gm"B2 "(F)"AG "Gm"D<G G2 |
 | "Gm"d<g g<b d<g g<b | "Dm"d<f f<a d<f f<a | "Gm"d<g g<b "Dm"af dc | "Gm"B2 "(F)"AG "Gm"D<G G2 |]
